X:1
T:Amigos Para Siempre
T:Amigos Para Siempre
T:(Friends for life)  The Official theme of the Barcelon 1992 Games
T:Andrew Lloyd Webber
T:Don  Black 
C:Andrew Lloyd Webber
Z:All Rights Reserved
L:1/8
M:4/4
K:C
V:1 treble 
%%MIDI program 4
V:1
"F" A4"_Bossa Nova 8beat" G2 A_B | c2 A2 G2 F2 | A4 G2 A_B | c2 A2 G2 F2 |"Gm" GGGA D4 | %5
w: I don't have to|say a word to|you you seem to|know what- ev- er|mood I'm go- ing through|
w: We share mem- o-|ries I wont for-|get and we'll share|more my friend we|have- nt start- ed yet|
 GGGA"Bbm" _DD D2 |"F" C2 A6 | z8 | A4 G2 A_B | c2 A2 G2 F2 | A4 G2 A_B | c2 A2 G2 F2 | %12
w: Feel as though I've known you for|ev- er||You can look in-|to my eyes and|see the way I|feel and how the|
w: some- thing hap- pens when we're to-|geth- er||When I look at|tiy I won- der|why there has to|come a time when|
"Gm" GGGA D4 | GGGA"Bbm" _DD D2 | C2 A2 z4 | z2 f2 ffff |"Bb" feed dcc_B |"C7" d3 f ffff | %18
w: world is treat- ing me|May- be I have known you for|ev- er|A- mi- gos pa- ra|siem- pre means you'll al- ways be my|friend A- mi- gos pa- ra-|
w: we must say good- bye|I'm a- live when we are to-|geth- er||||
"F" fcc_B BAAG |"Dm" A6 dd |"Gm" dcc_B BAAG |"C7" _B3 G GGGA | G2 F6 | z4 f2 ff |"Bb" feed dcc_B | %25
w: siem- pre means a love that can- not|end friends for|life not just a sum- mer or a|Spring a mi- gos- pa- ra|siem- pre|I feel you|near me ev- en when we are a-|
w: |||||||
"C7" d4 f2 ff |"F" fcc_B BAAG |"Dm" A6 dd |"Gm" dcc_B BAAG |"C7" _B3 G GGGA |"F" G2 F6- | %31
w: part just know- ing|you are in this world can warm my|heart friends for|life not just a sum- mer or a|spring a- mi- gos- pa- ra-|siem- pre.|
w: ||||||
 F2 z2 z4 :|"F" G2 F6- | F3 f ffff |"Bb" feed dcc_B |"C7" d3 f ffff |"F" fcc_B BAAG |"D7" A6 dd | %38
w: |siem- pre-|* A- mi- gos- pa- ra|siem- pre means you'll al- ways be my|friend A- mi- gos- pa- ra-|siem- pre means a love that can- not|end friends for|
w: |||||||
"Gm" dcc_B BAAG |"C7" _B3 G GGGA |"Bb" G4 F3 F | _B2 F2 B2 d2 |"F" f2 f6- | f4 z4 |] %44
w: life not just a sum- mer or a|spring a- mi- gos- pa- ra|siem- pre a|mi- gos pa- ra|siem- pre.-||
w: ||||||

